X:8
T:Bantry Bay
S:Flos Headford <flos:madasafish.com> tradtunes 2010-4-7
R:hp 32
M:4/4
L:1/8
Q:2/4=80
K:G
|: G>A | B3G A>GE>D | .E2G>F G>BA>G |\ 
E>GA>B c>BA>G | A2 (3GAB A2A>B | 
c3A B3G | A>BA>G {D}E2G>A |\ 
B>GA>G E>GD>E |1 G2G>F G2 :|2 G2G>F G3 |] 
|: B | d>BG>B d>BG>d | e>e (3def e2e>f |\ 
g>fe>d B>AB>d | g>g (3fga g2 (3def | 
g>ag>f e>ge>d | B>dB>G E>GG>A |\ 
B>GA>G E>GD>E |1 G2G>F G3 :|2 G2G>F G2 |] 

